X: 067
T: the New merry Dancers
B: 204 Favourite Country Dances
N: Published by Straight & Skillern, London ca.1775
F: http://imslp.org/wiki/204_Favourite_Country_Dances_(Various) p.34 #65
Z: 2014 John Chambers <jc:trillian.mit.edu>
M: C|
L: 1/8
K: G
% - - - - - - - - - - - - - - - - - - - - - - - - -
|:\
g2(dc) (3(Bcd) cB | ABcB A2D2 |\
B,DGB, (A,^C).A.c | BGDB, G,4 :|\
|:\
(3(Bcd) dd .g(dcB) | (3(Bcd) dd .g(dcB) |
(ca).a.a (Bg).g.g | Bd DF G2G2 :|\
|:\
B,DGB, A,^CAc | BcdB AFED |\
B,DGB, A,^CAc | Bd DF G2G,2 :|
% - - - - - - - - - - - - - - - - - - - - - - - - -
%%begintext align
%% Foot it & change sides .| the same back again :|
%% hands across 4 :|. left hands across back again :|:
%% lead down 1 Cu. & foot it .|| Right & Left :||:
%%endtext

%%sep 1 1 500
%%sep 1 1 500
